X: 21213
P: Ne m'oubliez pas.
M: 2/4
L: 1/8
K: A
[|\
e2 ge/g/ | bg/b/ d'b/g/ | ee/e/ ef/g/ | az az |]\
agba | gBd2 | dcfe | eAc2 |\
agba | gBd2 | fe^de | Az az |]


